X: 9204
T: Damon's Winder
R: reel
M: 4/4
K: Dmajor
|:ABAG FGFE|DED=C A,2A,B,|=C2CC C2A,2|=CC2C A,4|
ABAG FGFE|DED=C A,2A,B,|=C2CC A,C3|D4 D4:|
|:ABde fedA|Bdef g2gg|ABde fedf|edcB A2AA|
ABde fedA|Bdef g2fg|a2aa agfe|dfec d2d2:|

